X: 10882
T: MR. THOS. JARVIS'S REEL
R: reel
B: K\"ohler's Violin Repository, v.1, 1885 p.88 #2
F: http://www.archive.org/details/klersviolinrepos01edin
Z: 2012 John Chambers <jc:trillian.mit.edu>
M: C|
L: 1/8
K: A
ue | cA A/A/A A2EA |Bcde fBBe | cA A/A/A A2EA | dfed cAA :|
ud | (c/d/e) (ea) fdec | fdec fBBd | (c/d/e) (ea) fdec | dBed cAA |]
 d | (c/d/e) (ea) fdec | fdec fBBd | (ce)ea (df)fb | edcB cAA "^Fine."|]

%%sep 2 1 500

